X:39
T:Miss Douglass Strathspey. RH.039
R:Reel
S:Rev.R.Harrison’s MS,c1815,Cumbria
O:England
A:Temple Sowerby,Cumbria
Z:vmp.Simon Wilson. Review PJH, 2008.
M:2/4
L:1/8
Q:1/4=180
K:G
D|G2GE|FGAF|GBdB|e3f|\
gbeg|dgBG|FAAG|FEFD|!
G2GE|FGAF|GBdB|e3f|\
gbfg|dgBG|EAFD|G3||!
d|efge|fgaf|efgf|edcB|\
cdec|BdgB|EAAG|FEFD|!
G2GE|FGAF|GBdB|e3f|\
gbeg|dgBG|EAFD|G3|]

